X:35
T:Nr 14
R:Polska
C:Olof Jonsson-From (fdt 1796)
H:
N:Trad. /folk
N:Nr 14 i K.P. Lefflers "Om Nyckelharpospelet p Skansen"
B:http://old.ljusdal.se/from/
O:Sverige - Sweden - Sude
A:Boda (Jrvs)
Z:<anamnese@laposte.net> -- http://anamnese.fr.st
M:3/4
L:1/8
Q:1/4=110
K:F
A>^c d(e f/e/)f/g/ | a>(f d)^c [A2A2] | A>G E>F D>E | ^C2 E2 A2-|A>^c d>e fa |
({ef}e>^c) [D4d4] :||: f>a ge =ce | fe/f/ gf/g/ (a2|b)>a gf ed | [E2^c2] [A4A4] |
f>a ge =ce | fe/f/ gf/g/ (a2|b)>a gf ed | (^c/d/)e/c/ [D2d2] z2 :|
